packages/foundations/assets/icons/functional/images/file/image_12_filled.svg

<svg width="12" height="12" viewBox="0 0 12 12" fill="none" xmlns="http://www.w3.org/2000/svg">
<g clip-path="url(#clip0_2208_3417)">
<path fill-rule="evenodd" clip-rule="evenodd" d="M9.00005 1.79999C9.63267 1.79999 10.2017 2.35774 10.2001 2.99999V8.99999C10.2001 9.6326 9.64362 10.2016 9.00005 10.2H3.00005C2.36743 10.2 1.80413 9.63746 1.80005 8.99999V2.99999C1.80005 2.36737 2.37066 1.80384 3.00005 1.79999H9.00005ZM9.00005 2.99999H3.00005V7.12859L3.93172 6.66333C4.05033 6.60403 4.18452 6.58601 4.31332 6.61077L5.83745 7.11299L7.37578 5.57572C7.59208 5.35943 7.93241 5.3428 8.16779 5.52581L9.00005 6.35099V2.99999ZM4.50005 3.59999C4.99715 3.59999 5.40005 4.00296 5.40005 4.49999C5.40005 4.99702 4.99715 5.39999 4.50005 5.39999C4.00294 5.39999 3.60005 4.99702 3.60005 4.49999C3.60005 4.00296 4.00294 3.59999 4.50005 3.59999Z" fill="#1A1C1F"/>
</g>
<defs>
<clipPath id="clip0_2208_3417">
<rect width="12" height="12" fill="white"/>
</clipPath>
</defs>
</svg>

<svg xmlns="http://www.w3.org/2000/svg" width="12" height="12" fill="none"><g clip-path="url(#a)"><path fill="#1A1C1F" fill-rule="evenodd" d="M9 1.8c.633 0 1.202.558 1.2 1.2v6c0 .633-.556 1.202-1.2 1.2H3c-.633 0-1.196-.563-1.2-1.2V3c0-.633.57-1.196 1.2-1.2zM9 3H3v4.129l.932-.466a.6.6 0 0 1 .381-.052l1.524.502 1.539-1.537a.6.6 0 0 1 .792-.05L9 6.35zm-4.5.6a.9.9 0 1 1 0 1.8.9.9 0 0 1 0-1.8" clip-rule="evenodd"/></g><defs><clipPath id="a"><path fill="#fff" d="M0 0h12v12H0z"/></clipPath></defs></svg>
